X: 16343
T: Guiseppe's
R: jig
M: 6/8
K: Dmajor
"D"dec dcA|GAE E/E/FD|d2c dfa|ged ABc|
ded dcA|GAE EDD|"D"Ddc dfa|gec dfe|
d2c dcA|GAE EFD|Ddc dfa|gec ABc|
ded dcA|GAE EDD|Ddc dfa|gec def|
"A"eeA edc|"D"dfF fed|"G"dgG gfe|g/f/ed Bcd|
"A"e2A edc|"D"dfF fed|"G"dgG gfe|g/f/ec def|
"A"e2A edc|"D"dfF fed|"Em"dgG gfe|daa a2d|
"G"fgd bgd|"D/F#"efd afd|"G"gab "G/B"afd|"A"egf "A/C#"edc:|
"D"d3 DFA|d3 fdA|D6|

